PortableApps/LibreOfficePortable/App/libreoffice/help/media/icon-themes/cmd/lc_ungroup.svg

<svg viewBox="0 0 24 24" xmlns="http://www.w3.org/2000/svg"><path d="m21 2v5h-7v-5zm-1 1h-5v3h5zm1 6v6h-7v-6zm-1 1h-5v4h5zm1 7v5h-7v-5zm-1 1h-5v3h5z" fill="#808080"/><path d="m20 3v3h-5v-3zm0 7v4h-5v-4zm0 8v3h-5v-3z" fill="#fff"/><path d="m6 3c-.554 0-1 .446-1 1v4c0 .554.446 1 1 1s1-.446 1-1v-3h4c.554 0 1-.446 1-1s-.446-1-1-1zm0 12c-.554 0-1 .446-1 1v4c0 .554.446 1 1 1h5c.554 0 1-.446 1-1s-.446-1-1-1h-4v-3c0-.554-.446-1-1-1z" fill="#4d82b8"/><path d="m3 11h6v2h-6z" fill="#e68497"/></svg>

<svg viewBox="0 0 24 24" xmlns="http://www.w3.org/2000/svg">
  <path
     style="fill:#808080"
     d="M 21,2 V 7 H 14 V 2 Z m -1,1 h -5 v 3 h 5 z m 1,6 v 6 H 14 V 9 Z m -1,1 h -5 v 4 h 5 z m 1,7 v 5 h -7 v -5 z m -1,1 h -5 v 3 h 5 z"
     />
  <path
     style="fill:#ffffff"
     d="M 20,3 V 6 H 15 V 3 Z m 0,7 v 4 h -5 v -4 z m 0,8 v 3 h -5 v -3 z"
     />
  <path
     style="fill:#4d82b8"
     d="M 6,3 C 5.446,3 5,3.446 5,4 V 8 C 5,8.554 5.446,9 6,9 6.554,9 7,8.554 7,8 V 5 h 4 C 11.554,5 12,4.554 12,4 12,3.446 11.554,3 11,3 Z m 0,12 c -0.554,0 -1,0.446 -1,1 v 4 c 0,0.554 0.446,1 1,1 h 5 c 0.554,0 1,-0.446 1,-1 0,-0.554 -0.446,-1 -1,-1 H 7 V 16 C 7,15.446 6.554,15 6,15 Z"
     />
  <path
     style="fill:#e68497"
     d="m 3,11 h 6 v 2 H 3 Z"
     />
</svg>
